icons/glyphs/glyph-plasma.svg

<?xml version="1.0" encoding="UTF-8" standalone="no"?><svg height="16" viewBox="0 0 16 16" width="16" xmlns="http://www.w3.org/2000/svg"><sodipodi:namedview/><metadata><rdf:RDF><cc:Work><dc:format>image/svg+xml</dc:format><dc:type/><dc:title/></cc:Work></rdf:RDF></metadata><path d="m10.077611.06537706-2.1996452 2.19964474 3.1258132 3.1258139-3.0100444 3.010038 2.0838764 2.0838773 5.209689-5.2096903zm-2.4158066 15.33516594a2.0466749 2.0466749 0 0 1 -2.8944353 0 2.0466749 2.0466749 0 0 1 0-2.894435 2.0466749 2.0466749 0 0 1 2.8944353 0 2.0466749 2.0466749 0 0 1 0 2.894435zm-2.6928222-13.6536946a1.023279 1.023279 0 0 1 -1.4471318 0 1.023279 1.023279 0 0 1 0-1.44713834 1.023279 1.023279 0 0 1 1.4471318 0 1.023279 1.023279 0 0 1 0 1.44713834zm-1.6467441 6.6335953a1.5286319 1.5474217 0 0 1 -2.1618104 0 1.5286319 1.5474217 0 0 1 0-2.188389 1.5286319 1.5474217 0 0 1 2.1618104 0 1.5286319 1.5474217 0 0 1 0 2.188389z" fill="#fff" fill-opacity=".978723" shape-rendering="crispEdges"/></svg>

<?xml version="1.0" encoding="UTF-8" standalone="no"?>
<!-- Created with Inkscape (http://www.inkscape.org/) -->

<svg
   xmlns:dc="http://purl.org/dc/elements/1.1/"
   xmlns:cc="http://creativecommons.org/ns#"
   xmlns:rdf="http://www.w3.org/1999/02/22-rdf-syntax-ns#"
   xmlns:svg="http://www.w3.org/2000/svg"
   xmlns="http://www.w3.org/2000/svg"
   xmlns:sodipodi="http://sodipodi.sourceforge.net/DTD/sodipodi-0.dtd"
   xmlns:inkscape="http://www.inkscape.org/namespaces/inkscape"
   width="16"
   height="16"
   viewBox="0 0 16 16"
   version="1.1"
   id="svg8"
   inkscape:version="0.92+devel (4546dc857e, 2017-07-25, custom)"
   sodipodi:docname="glyph-plasma.svg">
  <defs
     id="defs2" />
  <sodipodi:namedview
     id="base"
     pagecolor="#002266"
     bordercolor="#ffffff"
     borderopacity="0.46666667"
     inkscape:pageopacity="0"
     inkscape:pageshadow="2"
     inkscape:zoom="13.081476"
     inkscape:cx="16.621911"
     inkscape:cy="12.794693"
     inkscape:document-units="px"
     inkscape:current-layer="svg8"
     inkscape:document-rotation="0"
     showgrid="false"
     inkscape:showpageshadow="false"
     borderlayer="true"
     units="px"
     fit-margin-top="0"
     fit-margin-left="0"
     fit-margin-right="0"
     fit-margin-bottom="0"
     inkscape:window-width="1920"
     inkscape:window-height="1051"
     inkscape:window-x="0"
     inkscape:window-y="0"
     inkscape:window-maximized="1" />
  <metadata
     id="metadata5">
    <rdf:RDF>
      <cc:Work
         rdf:about="">
        <dc:format>image/svg+xml</dc:format>
        <dc:type
           rdf:resource="http://purl.org/dc/dcmitype/StillImage" />
        <dc:title></dc:title>
      </cc:Work>
    </rdf:RDF>
  </metadata>
  <path
     inkscape:connector-curvature="0"
     d="M 10.077611,0.06537706 7.8779658,2.2650218 11.003779,5.3908357 7.9937346,8.4008737 10.077611,10.484751 15.2873,5.2750607 Z M 7.6618044,15.400543 a 2.0466749,2.0466749 0 0 1 -2.8944353,0 2.0466749,2.0466749 0 0 1 0,-2.894435 2.0466749,2.0466749 0 0 1 2.8944353,0 2.0466749,2.0466749 0 0 1 0,2.894435 z M 4.9689822,1.7468484 a 1.023279,1.023279 0 0 1 -1.4471318,0 1.023279,1.023279 0 0 1 0,-1.44713834 1.023279,1.023279 0 0 1 1.4471318,0 1.023279,1.023279 0 0 1 0,1.44713834 z M 3.3222381,8.3804437 a 1.5286319,1.5474217 0 0 1 -2.1618104,0 1.5286319,1.5474217 0 0 1 0,-2.188389 1.5286319,1.5474217 0 0 1 2.1618104,0 1.5286319,1.5474217 0 0 1 0,2.188389 z"
     style="opacity:1;fill:#ffffff;fill-opacity:0.97872332;stroke:none;stroke-width:1.22793484;stroke-linejoin:round;stroke-miterlimit:4;stroke-dasharray:none;shape-rendering:crispEdges"
     id="rect7722-7"
     inkscape:label="#" />
</svg>
